packages/core/src/svgs/tokens/branded/PSL.svg

<svg width="24" height="24" viewBox="0 0 24 24" fill="none" xmlns="http://www.w3.org/2000/svg">
<path fill-rule="evenodd" clip-rule="evenodd" d="M22 12C22 17.5229 17.5229 22 12 22C6.47705 22 2 17.5229 2 12C2 6.47705 6.47705 2 12 2C17.5229 2 22 6.47705 22 12ZM20.8236 12C20.8236 16.873 16.873 20.8235 12 20.8235C7.12706 20.8235 3.17647 16.873 3.17647 12C3.17647 7.12704 7.12706 3.17647 12 3.17647C16.873 3.17647 20.8236 7.12704 20.8236 12ZM8.47057 6.70588L10.1082 8.47058H12.9512C13.7253 8.47058 14.353 9.1294 14.353 9.9412C14.353 10.7529 13.7253 11.4118 12.9512 11.4118H10.8235V17.2917L12.5883 19.0588V13.1764H12.8535C14.6564 13.1764 16.1177 11.7283 16.1177 9.9412C16.1177 8.15411 14.6564 6.70588 12.8535 6.70588H8.47057Z" fill="#1D1D1B"/>
</svg>

<svg xmlns="http://www.w3.org/2000/svg" width="24" height="24" fill="none" viewBox="0 0 24 24">
    <path fill="#1D1D1B" fill-rule="evenodd" d="M22 12c0 5.523-4.477 10-10 10S2 17.523 2 12 6.477 2 12 2s10 4.477 10 10m-1.176 0a8.824 8.824 0 1 1-17.648 0 8.824 8.824 0 0 1 17.648 0M8.47 6.706l1.637 1.765h2.843c.774 0 1.402.658 1.402 1.47s-.628 1.47-1.402 1.47h-2.128v5.88l1.765 1.768v-5.883h.266c1.802 0 3.264-1.448 3.264-3.235s-1.462-3.235-3.264-3.235z" clip-rule="evenodd"/>
</svg>
